X:1
T:Magneto
T:Magneto
T:X-Men: First Class
T:Henry Jackman
C:Henry Jackman
%%score { 1 | 2 }
L:1/8
Q:1/4=155
M:4/4
K:Eb
V:1 treble nm="Piano" snm="Pno."
V:2 bass 
V:1
 z2 E2 =B2 E2 | e2 E2 =B2 E2 | z2 E2 c2 E2 | e2 E2 c2 E2 | z2 E2 =B2 E2 | e2 E2 =B2 E2 | %6
 z2 E2 c2 E2 | e2 E2 c2 E2 | E=B,DB, E=B,DB, | E=B,DB, E=B,DB, | ECDC ECDC | ECDC ECDC | %12
 E=B,DB, E=B,DB, | E=B,DB, E=B,DB, | ECDC ECDC | ECDC ECDC | E=B,DB, E=B,DB, | E=B,DB, E=B,DB, | %18
 ECDC ECDC | ECDC ECDC | E=B,DB, E=B,DB, | E=B,DB, E=B,DB, | ECDC ECDC | ECDC G2 z z | %24
 e'a=ba d'a=ba | e'a=ba d'a=ba | e'gc'g d'gc'g | e'gc'g d'gc'g | e'a=ba d'a=ba | e'a=ba d'a=ba | %30
 e'gc'g d'gc'g | e'gc'g d'gc'g | e'a=ba e'a=ba | e'a=ba d'a=ba | e'gc'g e'gc'g | e'gc'g d'gc'g | %36
 e'a=ba e'a=ba | e'a=ba e'a=ba | e'gc'g d'gc'g | g'gc'g g'2 z2 | %40
[Q:1/4=160] [A,EA][A,EA] [A,EA]2 [A,EA]2 [A,EA][A,EA] | [A,EA]2 [A,EA]2 [B,EB][B,EB] [B,EB]2 | %42
 [CEGc][CEGc] [CEGc]2 [CEGc]2 [CEGc][CEGc] | [G,CEG][G,CEG] [G,CEG]2 [Gceg][Gceg] [Gceg]2 | %44
 [A,EA][A,EA] [A,EA]2 [A,EA]2 [A,EA][A,EA] | [A,EA]2 [A,EA]2 [B,EB][B,EB] [B,EB]2 | %46
 [CEGc][CEGc] [CEGc]2 [CEGc]2 [CEGc][CEGc] | [G,CEG][G,CEG] [G,CEG]2 [Gceg][Gceg] [Gceg]2 | %48
 [A,EA][A,EA] [A,EA]2 [A,EA]2 [A,EA][A,EA] | [A,EA]2 [A,EA]2 [B,EB][B,EB] [B,EB]2 | %50
 [CEGc][CEGc] [CEGc]2 [CEGc]2 [CEGc][CEGc] | [G,CEG][G,CEG] [G,CEG]2 [Gceg][Gceg] [Gceg]2 | %52
 [A,EA][A,EA] [A,EA]2 [A,EA]2 [A,EA][A,EA] | [A,EA]2 [A,EA]2 [B,EB][B,EB] [B,EB]2 | %54
 [CEGc][CEGc] [CEGc]2 [CEGc]2 [CEGc][CEGc] | [G,CEG][G,CEG] [G,CEG]2 [Gceg][Gceg] [Gceg]2 | %56
[Q:1/4=155] z2 E2 =B2 E2 | e2 E2 =B2 E2 | z2 E2 c2 E2 | e2 E2 c2 E2 | z2 E2 =B2 E2 | e2 E2 =B2 E2 | %62
 z2 E2 c2 E2 | e2 E2 c4 | [Ee]8 |!mf! C8 | [CEGc]8 |] %67
V:2
 [A,,,A,,][A,,,A,,] z2 z4 | [A,,,A,,][A,,,A,,] z2 [=B,,,=B,,][B,,,B,,] z2 | [C,,C,][C,,C,] z2 z4 | %3
 [G,,,G,,][G,,,G,,] z2 [G,,,G,,][G,,,G,,] z2 | [A,,,A,,][A,,,A,,] z2 z4 | %5
 [A,,,A,,][A,,,A,,] z2 [=B,,,=B,,][B,,,B,,] z2 | [C,,C,][C,,C,] z2 z4 | %7
 [G,,,G,,][G,,,G,,] z2 [G,,,G,,][G,,,G,,] z2 | [A,,,A,,][A,,,A,,] z2 z4 | %9
 [A,,,A,,][A,,,A,,] z2 [=B,,,=B,,][B,,,B,,] z2 | [C,,C,][C,,C,] z2 z4 | %11
 [G,,,G,,][G,,,G,,] z2 [G,,,G,,][G,,,G,,] z2 | [A,,,A,,][A,,,A,,] z2 z4 | %13
 [A,,,A,,][A,,,A,,] z2 [=B,,,=B,,][B,,,B,,] z2 | [C,,C,][C,,C,] z2 z4 | %15
!<(! [G,,,G,,][G,,,G,,] z2 [G,,,G,,][G,,,G,,] z2!<)! |!mf! [A,,,A,,][A,,,A,,] z2 z4 | %17
 [A,,,A,,][A,,,A,,] z2 [=B,,,=B,,][B,,,B,,] z2 | [C,,C,][C,,C,] z2 z4 | %19
 [G,,,G,,][G,,,G,,] z2 [G,,,G,,][G,,,G,,] z2 | [A,,,A,,][A,,,A,,] z2 z4 | %21
 [A,,,A,,][A,,,A,,] z2 [=B,,,=B,,][B,,,B,,] z2 | [C,,C,][C,,C,] z2 z4 | %23
 [G,,,G,,][G,,,G,,] z2 [G,,,G,,]2 z2 |!p! [A,,A,][A,,A,] z2 z4 | %25
 [A,,A,][A,,A,] z2 [=B,,=B,][B,,B,] z2 | [C,C][C,C] z2 z4 | [G,,G,][G,,G,] z2 [G,,G,][G,,G,] z2 | %28
 [A,,A,][A,,A,] z2 z4 | [A,,A,][A,,A,] z2 [=B,,=B,][B,,B,] z2 | [C,C][C,C] z2 z4 | %31
!<(! [G,,G,][G,,G,] z2 [G,,G,][G,,G,] z2!<)! |!f! [A,,,A,,][A,,,A,,] z2 [A,EG]3 z | %33
 [A,,,A,,][A,,,A,,] z2 [=B,,,=B,,][B,,,B,,] z2 | [C,,C,][C,,C,] z2 [G,CEG]3 z | %35
 [G,,,G,,][G,,,G,,] z2 [G,,,G,,][G,,,G,,] z2 | [A,,,A,,][A,,,A,,] z2 [A,CEG]3 z | %37
 [A,,,A,,][A,,,A,,] z2 [=B,,,=B,,][B,,,B,,] z2 | [C,,C,][C,,C,] z2 [G,CEG]2 z2 | %39
 [G,,,G,,][G,,,G,,] z2 [G,,,G,,]2 z2 | %40
!fff! [A,,,A,,][A,,,A,,] [A,,,A,,]2 [A,,,A,,]2 [A,,,A,,][A,,,A,,] | %41
 [A,,,A,,]2 [A,,,A,,]2 [=B,,,=B,,][B,,,B,,] [B,,,B,,]2 | %42
 [C,,C,][C,,C,] [C,,C,]2 [C,,C,]2 [C,,C,][C,,C,] | %43
 [G,,,G,,][G,,,G,,] [G,,,G,,]2 [G,,,G,,][G,,,G,,] [G,,,G,,]2 | %44
 [A,,,A,,][A,,,A,,] [A,,,A,,]2 [A,,,A,,]2 [A,,,A,,][A,,,A,,] | %45
 [A,,,A,,]2 [A,,,A,,]2 [=B,,,=B,,][B,,,B,,] [B,,,B,,]2 | %46
 [C,,C,][C,,C,] [C,,C,]2 [C,,C,]2 [C,,C,][C,,C,] | %47
 [G,,,G,,][G,,,G,,] [G,,,G,,]2 [G,,,G,,][G,,,G,,] [G,,,G,,]2 | [A,,,A,,][A,,,A,,] z2 z4 | %49
 [A,,,A,,][A,,,A,,] z2 [=B,,,=B,,][B,,,B,,] z2 | [C,,C,][C,,C,] z2 z4 | %51
 [G,,,G,,][G,,,G,,] z2 [G,,,G,,][G,,,G,,] z2 | [A,,,A,,][A,,,A,,] z2 z4 | %53
 [A,,,A,,][A,,,A,,] z2 [=B,,,=B,,][B,,,B,,] z2 | [C,,C,][C,,C,] z2 z4 | %55
 [G,,,G,,][G,,,G,,] z2 [G,,,G,,][G,,,G,,] z2 | [A,,,A,,][A,,,A,,] z2 z4 | %57
 [A,,,A,,]!>(![A,,,A,,] z2 [=B,,,=B,,][B,,,B,,] z2!>)! | [C,,C,][C,,C,] z2 z4 | %59
 [G,,,G,,][G,,,G,,] z2 [G,,,G,,][G,,,G,,] z2 | [A,,,A,,][A,,,A,,] z2 z4 | %61
 [A,,,A,,][A,,,A,,] z2 [=B,,,=B,,][B,,,B,,] z2 | [C,,C,][C,,C,] z2 z4 | %63
 [G,,,G,,][G,,,G,,] z2 [G,,,G,,]4 |!fff! [E,,E,]8 | [C,,,C,,]8 | [C,,,C,,]8 |] %67

